!!!OTL: LASST DIE POLITIKER NUR SPRECHEN
!!!ARE: Europa, Mitteleuropa, Deutschland
!!!SCT: F0732
!!!YEM: Copyright 1995, estate of Helmut Schaffrath.
**kern
*ICvox
*Ivox
*M3/4
*k[]
*C:
=1
{4c
4c
4c
=2
4c
4B
4c
=3
4A
4c
4A
=4
4A
4G
4r}
=5
{4c
4c
4c
=6
4c
4B
4c
=7
4G
4f
4e
=8
4e
4d
4r}
=9
{4c
4c
4c
=10
4c
4B
4c
=11
4A
4c
4A
=12
4A
4G
4r}
=13
{4c
4c
4c
=14
4c
4B
4c
=15
4G
4f
4e
=16
4e
4d
4r}
=17
{4d
4d
4d
=18
4.d
8c
4B
=19
4c
4A
4F#
=20
2G
4r}
=21
{4e
4e
4e
=22
4.g
8f
4e
=23
4d
4c
4B
=24
2c
4r}
=25
{4d
4d
4d
=26
4.d
8c
4B
=27
4c
4A
4F#
=28
2G
4r}
=29
{4e
4e
4e
=30
4.g
8f
4e
=31
4d
4c
4B
=32
2c
4r}
==
!!!AGN: Geselligkeits -, Trink - Lied
!!!ONB: ESAC (Essen Associative Code) Database: FINK
!!!AMT: simple triple
!!!AIN: vox
!!!EED: Helmut Schaffrath
!!!EEV: 1.0
*-
